X:1
T:Title
%%score { ( 1 4 ) | ( 2 3 ) }
L:1/8
Q:1/4=100
M:6/8
K:Bb
V:1 treble nm="Grand Piano"
V:4 treble 
V:2 bass 
V:3 bass 
V:1
 [B,DF]2 [B,DF] [B,DF][B,D][B,DF] | [DB]2 [EG] [DF]3 | [FB]2 [FB] cBc | d3 B3 | %4
w: Mrs.~C.~H.~Morris * * * *||||
 [GB]2 [GB] [GB][FA][EG] | [DF]2 [DB] [Fd]3 | [=Ec]2 [EB] GAB | c3 F3 | c2 c cBc | %9
w: |||||
 [Fd]2 [Ec] [DB]3 | c2 c cBc | d2 d c3 | [^Fd]2 [Fd] .[Gd]2 [DFA] | [DGB]2 [DGB] [Ge]3 | %14
w: |||||
 [EF]3 [Ec]3 | [DB]6 | F2 F FGA | B2 B B3 | d2 B BAG | B3 A3 | F2 F FAc | e2 e e3 | e2 c AGF | %23
w: |||||||||
 G3 F3 | [Fd]2 [Fd] [Fd][=E_d][F=d] | [DB]2 [EB] [DB]3 | e2 e ede | c2 c c3 | %28
w: |||||
 [_Af]2 [Af] [Af][Ad][AB] | [Gc]2 [Gd] [Ge]3 | e3 z2 E | [DFB]6 |] %32
w: ||||
V:2
 B,,2 B,, z F,B,, | [B,,F,]2 [B,,B,] [B,,B,]3 | z3[K:treble] .A,3 | [B,F]3 [B,D]3 | %4
 [E,E]2 [E,E] [E,E]2 [E,B,] | [B,,B,]2 [B,,B,] [B,,B,]3 | z3[K:treble] .C3[K:bass] | %7
 [F,CE]3 [F,CE]3 | z3 .[F,F]3 | [B,,B,]2 [B,,B,] [B,,B,]3 | z3 .[F,F]3[K:treble] | %11
 [B,F]2 [B,F][K:bass] [F,A,F]3 | [D,A,]2 [D,A,] z[K:treble] c[K:bass]D, | G,2 G, [C,C]3 | %14
 [F,A,]3 [F,A,]3 | [B,,F,]6 | [B,,B,]3 [F,B,D]3 | [B,,B,]3 [F,B,D]3 | [B,,B,]3 [F,B,D]3 | %19
 [C,C]3 [F,A,E]3 | [F,,F,]3 [F,A,C]3 | [A,,A,]3 [F,A,C]3 | [F,,F,]3 [F,A,E]3 | [B,,B,]3 [F,A,D]3 | %24
 [B,,B,]2 [B,,B,] [B,,B,]2 [B,,B,] | [B,,F,]2 [B,,G,] [B,,F,]3 | z3 .C3 | %27
 [F,A,F]2 [G,B,=E] [A,C_E]3 | [D,B,]2 [D,B,] [B,,B,][B,,B,][B,,B,] | [E,B,]2 [D,=B,] [C,C]3 | %30
 [F,CF]3 .[F,CF]3 | B,,6 |] %32
V:3
 z3 .B,,3 | x6 | [D,B,]2 [D,B,][K:treble] [F,F]-[F,G,F][F,A,F] | x6 | x6 | x6 | %6
 [C,G,]2 [C,G,][K:treble] [B,=E][A,F][K:bass][G,CE] | x6 | [F,A,F]2 [F,A,F] A,G,[F,A,F] | x6 | %10
 [F,A,F]2 [F,A,F] A,G,[K:treble][F,A,F] | x3[K:bass] x3 | z3 .[D,A,]3[K:treble][K:bass] | x6 | x6 | %15
 x6 | x6 | x6 | x6 | x6 | x6 | x6 | x6 | x6 | x6 | x6 | [F,A,F]2 [F,A,F] [F,F]-[F,B,F][F,CF] | x6 | %28
 x6 | x6 | x6 | x6 |] %32
V:4
 x6 | x6 | x6 | x6 | x6 | x6 | x6 | x6 | x6 | x6 | x6 | x6 | x6 | x6 | x6 | x6 | x6 | x6 | x6 | %19
 x6 | x6 | x6 | x6 | x6 | x6 | x6 | x6 | x6 | x6 | x6 | z3 A3 | x6 |] %32

